icons/alarm-warning-line.svg

<svg xmlns="http://www.w3.org/2000/svg" width="24" height="24" fill="none"><g clip-path="url(#a)"><g><path fill="#121212" d="M3.99962 20V14C3.99962 11.8783 4.84247 9.84344 6.34276 8.34315C7.84305 6.84285 9.87788 6 11.9996 6C14.1213 6 16.1562 6.84285 17.6565 8.34315C19.1568 9.84344 19.9996 11.8783 19.9996 14V20H20.9996V22H2.99962V20H3.99962ZM5.99962 20H17.9996V14C17.9996 12.4087 17.3675 10.8826 16.2423 9.75736C15.117 8.63214 13.5909 8 11.9996 8C10.4083 8 8.88219 8.63214 7.75698 9.75736C6.63176 10.8826 5.99962 12.4087 5.99962 14V20ZM10.9996 2H12.9996V5H10.9996V2ZM19.7776 4.808L21.1916 6.222L19.0716 8.343L17.6566 6.929L19.7776 4.808ZM2.80762 6.222L4.22162 4.808L6.34262 6.928L4.92962 8.344L2.80762 6.222ZM6.99962 14C6.99962 12.6739 7.5264 11.4021 8.46408 10.4645C9.40176 9.52678 10.6735 9 11.9996 9V11C11.204 11 10.4409 11.3161 9.8783 11.8787C9.31569 12.4413 8.99962 13.2044 8.99962 14H6.99962Z"/></g></g><defs><clipPath id="a"><rect width="24" height="24" fill="white"/></clipPath></defs></svg>

<svg width="24" height="24" fill="none" xmlns="http://www.w3.org/2000/svg"><g clip-path="url(#a)"><path d="M4 20v-6a8 8 0 0 1 16 0v6h1v2H3v-2h1Zm2 0h12v-6a6 6 0 1 0-12 0v6Zm5-18h2v3h-2V2Zm8.778 2.808 1.414 1.414-2.12 2.121-1.415-1.414 2.12-2.121ZM2.808 6.222l1.414-1.414 2.12 2.12L4.93 8.344 2.808 6.222ZM7 14a5 5 0 0 1 5-5v2a3 3 0 0 0-3 3H7Z" /></g><defs><clipPath id="a"><path fill="#fff" d="M0 0h24v24H0z"/></clipPath></defs></svg>
